X:36
T:Bourre croise de Glux
R:Bourre  3 temps
A:Morvan
O:France
M:3/4
L:1/8
Q:1/4=200
K:C
f2|ff e2g2|f4 de|fe d2f2|e4 cd|ed c2e2|d4 Bc|dc B2d2|c4G2|c4 cd|
|:e2 ef ed|c4 cd|e2f2e2|c4Bc|d2de dc|B4 de|f2e2d2|1e2c2 cd:|2c4
G2|
|:gf e2g2|f4 de|fe d2 f2|e4 cd|ed c2e2|d4 Bc|dc
B2d2|1e2c2g2:|2c4||
